X:1
T:Title
%%score { ( 1 4 ) | ( 2 3 ) }
L:1/8
M:6/8
K:D
V:1 treble nm="Grand Piano"
V:4 treble 
V:2 bass 
V:3 bass 
V:1
 z3 z2[Q:1/4=90] [FA] | [FA]2 F FEF | [EG]2 [DF] [CE]2 [DF] | [EG][FA][GB] [GB]A[A,EG] | %4
 [B,DG]3 [A,DF]2 [A,FA] | [A,FA]2 F FE[A,DF] | [A,EG]2 [A,DF] [A,CE]2 [A,EA] | c2 A ABc | %8
[M:7/8] B3 [A,CA]3 A |[M:3/4] c2 cc Bc | [Fd]2 [GB] [FA]2 [FA] | [GB]2 [GB][Bd] [Ac][GB] | %12
 [FA]2 [DF] [CE]2 [CE] | F2 FG FG |[M:5/8] A2 z z2 |[M:1/8] [EAc] | %16
[M:3/4] [DAd]2 [DFA][DF][K:bass] [G,CE][F,D] | [G,CE]3 [F,D]3 |[M:1/8][K:treble] [A,FA] | %19
[M:3/4] A2 Ac Bc | [Fd]3 [FA]2 [FA] | [DGB]2 [^DAB]^G- [Ge][EGd] | [EAc]4- [EAc][CGA] | %23
 [DFd]2 [Fd]e dB | [FA]2 [DF][FA] GF | z2 z .F3[K:bass] |[M:5/8] [F,D]-[F,D]- [F,D]3 |] %27
V:2
 z3 z2 [D,A,] | [D,A,]2 [D,A,D] DC[D,A,D] | [C,A,]2 [D,A,] [A,,A,]2 [A,,A,] | %3
 [A,,A,]2 [A,,A,] z FA,, | D,3 D,2 D, | D,2 [D,A,D] DCD, | C,2 D, A,,2 C, | %7
 [E,A,E]2 [E,C] CD[E,E] |[M:7/8] [E,^G,D]3 A,,3 A, | %9
[M:3/4][K:treble] [A,EG]2 [A,EG] [A,EG]2 [A,EG] | [D,D]2 [D,D] [D,D]2 [D,D] | %11
 [G,D]2 [G,D] [G,D]2 [G,D] | [D,D]2 [D,A,] [A,,A,]2 [A,,A,] | [D,A,D]2 [D,A,D] [E,A,C]2 [E,A,C] | %14
[M:5/8] =C z [F,^CE] [G,B,D]2 |[M:1/8] G, |[M:3/4] F,2 D,A, A,,A,, | A,,3 D,3 |[M:1/8] D, | %19
[M:3/4][K:treble] [A,CE]2 [A,DF] [A,EG]2 [A,EG] | [D,D]3 [D,D]2 [D,D] | G,2 .F,2 B,E, | A,4- A,A, | %23
 D,2 [D,=C][K:treble] [G,B,G]2 [G,DG] | [D,D]2 [D,A,][^D,=C] [E,B,E][F,A,^D] | %25
 [G,B,][F,B,^D] .[E,B,E]2 ^G,A,, |[M:5/8] D,-D,- D,3 |] %27
V:3
 x6 | z3 .[D,A,]3 | x6 | z3 .[A,,A,]3 | x6 | z3 .[D,A,]3 | x6 | z3 .E,3 |[M:7/8] x7 | %9
[M:3/4][K:treble] x6 | x6 | x6 | x6 | x6 |[M:5/8] [F,A,]2 z z2 |[M:1/8] x |[M:3/4] x6 | x6 | %18
[M:1/8] x |[M:3/4][K:treble] x6 | x6 | z2 z .E,3 | x6 | x3[K:treble] x3 | x6 | z2 z .A,,3 | %26
[M:5/8] x5 |] %27
V:4
 x6 | x6 | x6 | x6 | x6 | x6 | x6 | x6 |[M:7/8] x7 |[M:3/4] x6 | x6 | x6 | x6 | x6 | %14
[M:5/8] z D^A B2 |[M:1/8] x |[M:3/4] x4[K:bass] x2 | x6 |[M:1/8][K:treble] x |[M:3/4] x6 | x6 | %21
 z2 z [EB] z2 | x6 | x6 | x6 | EA G[A,D][K:bass] B,[G,CE] |[M:5/8] x5 |] %27

